X: 16268
T: Gretle In The Garden
R: strathspey
M: 4/4
K: Gmajor
|:"G"D>G A>B G<D D>G|"D"A2 B2 c2 (3cde|"G"d2 d>B "C"c>d B<G|"G"B2 G>E "D"D2 D>E|
"G"D>G A>B G<D D>G|"D"A2 B2 c2 (3cde|"G"d2 d>B "C"c>d B<G|1 "D"B2 G2 "G"G2 G>E:|2 "D"B2 G2 "G"G2 G>F||
|:"Em"E2 (3EFG "D"F<D D>F|"C"G>F E<D "D"D2 G>F|"Em"E2 E>G A<B B>A|"G"B2 B>A "D"A2 G>F|
"Em"E2 (3EFG "D"F<D D>F|"C"G>F E<D "D"D2 G>F|"Em"E2 E>G A<B B>G|"D"A2 A>G "G"G4:|

